X: 19562
T: James Kelly's
R: slip jig
M: 9/8
K: Dmajor
|:F2 A A2 B A3|F2 A A2 A Bcd|F2 A A2 B A2 d|1 B2 e e2 d cBA:|
|:f2 a a2 f d3|e2 f e2 d cBA|f2 d e2 c d2 B|A2 B A2 G FED|
f2 a a2 f d3|e2 f e2 d cde|f2 a e2 c d2 B|A2 B A2 G FED||

